X:551
T:When Jesus Wept
Z:Jack Campin, http://www.campin.me.uk/
F:Jack Campin's Nine-Note Tunebook
% last edit 03-02-2013
C:William Billings
G:4-part round
M:3/2
L:1/2
Q:1/2=100
K:DMin
[V:1] D| A2       G|(A/>B/ c) F|(A/>G/ F) E   |D2||
[V:2] D| D2       C|(F     E) D| D2      [A,C]|D2||
[V:3] A|(d     A) c|(F     G) A| A2       A   |A2||
[V:4] F|(A/>G/ F) E|(F     B) A|(F/>E/ D) C   |D2||

